images/offcanvas-star-white.svg

<svg width="15" height="16" viewBox="0 0 15 16" fill="none" xmlns="http://www.w3.org/2000/svg">
<path fill-rule="evenodd" clip-rule="evenodd" d="M6.8341 2.1266C6.88014 1.98057 6.97155 1.85303 7.09503 1.76249C7.21851 1.67195 7.36764 1.62314 7.52076 1.62314C7.67388 1.62314 7.82301 1.67195 7.94649 1.76249C8.06997 1.85303 8.16138 1.98057 8.20743 2.1266L9.44743 5.93993H13.4474C13.606 5.93394 13.7622 5.98003 13.8921 6.07116C14.0221 6.16229 14.1186 6.29345 14.167 6.44461C14.2153 6.59577 14.2129 6.7586 14.16 6.90824C14.1071 7.05787 14.0067 7.18608 13.8741 7.27327L10.6274 9.6266L11.8674 13.4466C11.9165 13.5921 11.9177 13.7495 11.871 13.8957C11.8242 14.042 11.7319 14.1695 11.6076 14.2596C11.4832 14.3497 11.3333 14.3977 11.1798 14.3965C11.0263 14.3954 10.8771 14.3452 10.7541 14.2533L7.50076 11.8733L4.2541 14.2333C4.1311 14.3252 3.98194 14.3754 3.82839 14.3765C3.67484 14.3777 3.52495 14.3297 3.40061 14.2396C3.27627 14.1495 3.18398 14.022 3.13723 13.8757C3.09049 13.7295 3.09172 13.5721 3.14076 13.4266L4.38076 9.6066L1.1341 7.25327C1.00148 7.16608 0.901063 7.03787 0.848176 6.88824C0.795288 6.7386 0.792843 6.57577 0.841212 6.42461C0.889582 6.27345 0.986108 6.14229 1.11604 6.05116C1.24597 5.96003 1.40217 5.91394 1.56076 5.91993H5.56076L6.8341 2.1266Z" stroke="#EBEBEB" stroke-width="1.5" stroke-linecap="round" stroke-linejoin="round"/>
</svg>

<svg width="15" height="16" fill="none" xmlns="http://www.w3.org/2000/svg"><path clip-rule="evenodd" d="M6.834 2.127a.72.72 0 0 1 1.373 0l1.24 3.813h4a.727.727 0 0 1 .427 1.333l-3.247 2.354 1.24 3.82a.72.72 0 0 1-1.113.806l-3.253-2.38-3.247 2.36a.72.72 0 0 1-1.113-.806l1.24-3.82-3.247-2.354a.727.727 0 0 1 .427-1.333h4l1.273-3.793Z" stroke="#EBEBEB" stroke-width="1.5" stroke-linecap="round" stroke-linejoin="round"/></svg>
